X:24
T:Molehop
C:Chris Perry
S:The Fiddle Player's Tunebook
M:6/8
L:1/8
K:G
A |\
"G"BGB "C"c2 A |\
"G"BGB "D"AFD |\
"G"BGB "C"cAc |\
"D"BGF "G"G2 :: B |\
"D"AFA def |\
"A"ed^c "D"dfd |\
"D"AFA def |\
"A"ed^c "D"d2 :: =c |\
"G"BGB "C"cAc |\
"G"BGB "D"AFD |\
"G"BGB "C"cAc |\
"D"BGF "G"G2 :|
